public/svgs/Logo.svg

<svg width="101" height="40" viewBox="0 0 101 40" fill="none" xmlns="http://www.w3.org/2000/svg">
<foreignObject x="-8.91224" y="-8.91224" width="118.214" height="57.7786"><div xmlns="http://www.w3.org/1999/xhtml" style="backdrop-filter:blur(4.46px);clip-path:url(#bgblur_0_52_1423_clip_path);height:100%;width:100%"></div></foreignObject><g data-figma-bg-blur-radius="8.91224">
<rect width="100.389" height="39.9541" rx="19.9771" fill="white" fill-opacity="0.8"/>
<path d="M46.8977 7.32083C48.1753 6.84374 49.5312 6.98022 50.6436 7.5813C49.7978 8.4721 49.4823 9.80026 49.9411 11.0284C50.3998 12.2562 51.5084 13.0507 52.7307 13.1691C52.2848 14.3527 51.3509 15.345 50.0731 15.8224C47.7255 16.6992 45.1113 15.5075 44.2343 13.1599C43.3575 10.8122 44.55 8.19772 46.8977 7.32083Z" fill="url(#paint0_linear_52_1423)"/>
<circle cx="53.2318" cy="9.79904" r="3.12095" transform="rotate(-20.4811 53.2318 9.79904)" fill="url(#paint1_linear_52_1423)"/>
<path d="M12.6568 30.498V14.2939H14.619V21.5098H23.2591V14.2939H25.2213V30.498H23.2591V23.2505H14.619V30.498H12.6568ZM31.9866 30.7512C30.8156 30.7512 29.8055 30.4927 28.9563 29.9758C28.1123 29.4536 27.4609 28.7257 27.002 27.792C26.5484 26.8531 26.3215 25.7612 26.3215 24.5164C26.3215 23.2716 26.5484 22.1744 27.002 21.225C27.4609 20.2702 28.0991 19.5265 28.9167 18.9937C29.7396 18.4557 30.6996 18.1867 31.7967 18.1867C32.4297 18.1867 33.0548 18.2922 33.6719 18.5032C34.2891 18.7142 34.8508 19.057 35.3572 19.5318C35.8636 20.0012 36.2671 20.6236 36.5678 21.399C36.8684 22.1744 37.0188 23.1291 37.0188 24.2632V25.0544H27.6508V23.4404H35.1198C35.1198 22.7546 34.9827 22.1428 34.7084 21.6047C34.4394 21.0667 34.0543 20.6421 33.5532 20.3309C33.0574 20.0197 32.4719 19.8641 31.7967 19.8641C31.053 19.8641 30.4095 20.0487 29.8662 20.4179C29.3282 20.7819 28.9141 21.2566 28.624 21.8421C28.3339 22.4276 28.1888 23.0553 28.1888 23.7252V24.8012C28.1888 25.7191 28.347 26.4971 28.6635 27.1353C28.9853 27.7683 29.431 28.2509 30.0007 28.5832C30.5704 28.9103 31.2323 29.0738 31.9866 29.0738C32.4772 29.0738 32.9203 29.0052 33.3159 28.8681C33.7168 28.7257 34.0622 28.5147 34.3524 28.2351C34.6425 27.9503 34.8667 27.5969 35.0249 27.1749L36.8289 27.6813C36.639 28.2931 36.3198 28.8312 35.8715 29.2953C35.4231 29.7542 34.8693 30.1129 34.2099 30.3714C33.5506 30.6246 32.8095 30.7512 31.9866 30.7512ZM41.4302 30.7828C40.6601 30.7828 39.9612 30.6378 39.3335 30.3477C38.7058 30.0523 38.2074 29.6277 37.8381 29.0738C37.4689 28.5147 37.2843 27.8395 37.2843 27.0483C37.2843 26.352 37.4214 25.7876 37.6957 25.3551C37.97 24.9173 38.3366 24.5744 38.7955 24.3265C39.2544 24.0786 39.7608 23.894 40.3146 23.7727C40.8738 23.6461 41.4355 23.5458 41.9999 23.472C42.7384 23.3771 43.3371 23.3058 43.796 23.2584C44.2602 23.2056 44.5977 23.1186 44.8087 22.9973C45.025 22.876 45.1331 22.665 45.1331 22.3643V22.301C45.1331 21.5203 44.9195 20.9137 44.4922 20.4812C44.0703 20.0487 43.4294 19.8324 42.5696 19.8324C41.6782 19.8324 40.9793 20.0276 40.4729 20.4179C39.9665 20.8082 39.6105 21.225 39.4047 21.668L37.6324 21.0351C37.9489 20.2966 38.3709 19.7216 38.8984 19.3102C39.4311 18.8935 40.0113 18.6034 40.639 18.4399C41.272 18.2711 41.8944 18.1867 42.5063 18.1867C42.8966 18.1867 43.345 18.2342 43.8514 18.3291C44.363 18.4188 44.8562 18.606 45.3309 18.8909C45.8109 19.1757 46.2092 19.6056 46.5257 20.1806C46.8422 20.7555 47.0004 21.5256 47.0004 22.4909V30.498H45.1331V28.8523H45.0382C44.9116 29.116 44.7006 29.3982 44.4052 29.6989C44.1098 29.9995 43.7169 30.2553 43.2263 30.4663C42.7358 30.6773 42.1371 30.7828 41.4302 30.7828ZM41.7151 29.1054C42.4536 29.1054 43.076 28.9604 43.5824 28.6703C44.094 28.3802 44.4791 28.0057 44.7375 27.5468C45.0013 27.0879 45.1331 26.6052 45.1331 26.0988V24.3898C45.054 24.4848 44.8799 24.5718 44.6109 24.6509C44.3472 24.7248 44.0413 24.7907 43.6931 24.8487C43.3503 24.9015 43.0153 24.9489 42.6883 24.9911C42.3665 25.0281 42.1054 25.0597 41.905 25.0861C41.4197 25.1494 40.9661 25.2522 40.5441 25.3947C40.1274 25.5318 39.7898 25.7402 39.5313 26.0197C39.2781 26.294 39.1515 26.6685 39.1515 27.1432C39.1515 27.792 39.3916 28.2826 39.8716 28.6149C40.3568 28.9419 40.9713 29.1054 41.7151 29.1054ZM50.2706 14.2939V30.498H48.4033V14.2939H50.2706ZM51.0524 16.0346V14.2939H63.2054V16.0346H58.11V30.498H56.1478V16.0346H51.0524ZM63.0002 30.498H60.943L66.8929 14.2939H68.9185L74.8684 30.498H72.8112L67.969 16.8575H67.8424L63.0002 30.498ZM63.7597 24.1683H72.0517V25.9089H63.7597V24.1683ZM85.7026 19.3577C85.5285 18.8249 85.299 18.3476 85.0142 17.9256C84.7346 17.4983 84.3997 17.1344 84.0094 16.8337C83.6243 16.5331 83.1865 16.3036 82.6959 16.1454C82.2054 15.9871 81.6674 15.908 81.0819 15.908C80.1219 15.908 79.2489 16.1559 78.463 16.6517C77.677 17.1476 77.052 17.8781 76.5878 18.8434C76.1236 19.8087 75.8915 20.9929 75.8915 22.396C75.8915 23.799 76.1262 24.9832 76.5957 25.9485C77.0651 26.9138 77.7008 27.6443 78.5025 28.1402C79.3043 28.636 80.2063 28.8839 81.2085 28.8839C82.1368 28.8839 82.9544 28.6861 83.6612 28.2905C84.3733 27.8896 84.9272 27.3252 85.3228 26.5973C85.7237 25.8641 85.9241 25.0017 85.9241 24.01L86.5254 24.1366H81.6515V22.396H87.823V24.1366C87.823 25.4711 87.5382 26.6316 86.9685 27.618C86.4041 28.6043 85.6234 29.3692 84.6265 29.9125C83.6349 30.4505 82.4955 30.7195 81.2085 30.7195C79.7737 30.7195 78.5131 30.3819 77.4265 29.7068C76.3451 29.0316 75.5012 28.0716 74.8946 26.8268C74.2933 25.5819 73.9926 24.105 73.9926 22.396C73.9926 21.1142 74.164 19.9616 74.5069 18.9383C74.855 17.9098 75.3456 17.0342 75.9785 16.3115C76.6115 15.5889 77.3605 15.035 78.2256 14.65C79.0907 14.2649 80.0427 14.0724 81.0819 14.0724C81.9364 14.0724 82.7329 14.2016 83.4713 14.4601C84.2151 14.7133 84.8771 15.0746 85.4573 15.544C86.0428 16.0082 86.5307 16.5647 86.921 17.2135C87.3114 17.857 87.5804 18.5717 87.7281 19.3577H85.7026Z" fill="#042C58"/>
</g>
<defs>
<clipPath id="bgblur_0_52_1423_clip_path" transform="translate(8.91224 8.91224)"><rect width="100.389" height="39.9541" rx="19.9771"/>
</clipPath><linearGradient id="paint0_linear_52_1423" x1="46.3731" y1="7.51679" x2="49.5484" y2="16.0183" gradientUnits="userSpaceOnUse">
<stop stop-color="#007BFF"/>
<stop offset="1" stop-color="#51C1FF"/>
</linearGradient>
<linearGradient id="paint1_linear_52_1423" x1="53.2317" y1="6.67808" x2="53.2317" y2="12.92" gradientUnits="userSpaceOnUse">
<stop stop-color="#007BFF"/>
<stop offset="1" stop-color="#51C1FF"/>
</linearGradient>
</defs>
</svg>

<svg xmlns="http://www.w3.org/2000/svg" fill="none" viewBox="0 0 101 40" xmlns:xlink="http://www.w3.org/1999/xlink"><foreignObject width="118.214" height="57.779" x="-8.912" y="-8.912"><div xmlns="http://www.w3.org/1999/xhtml" clip-path="url(#a)" style="backdrop-filter:blur(4.46px);height:100%;width:100%"/></foreignObject><g data-figma-bg-blur-radius="8.912"><rect width="100.389" height="39.954" fill="#fff" fill-opacity=".8" rx="19.977"/><path fill="url(#b)" d="M46.898 7.32a4.53 4.53 0 0 1 3.746.261 3.317 3.317 0 0 0 2.087 5.588 4.538 4.538 0 1 1-5.833-5.848"/><circle cx="53.232" cy="9.799" r="3.121" fill="url(#c)" transform="rotate(-20.481 53.232 9.799)"/><path fill="#042c58" d="M12.657 30.498V14.294h1.962v7.216h8.64v-7.216h1.962v16.204H23.26V23.25h-8.64v7.248zm19.33.253q-1.756 0-3.03-.775-1.267-.783-1.955-2.184-.68-1.408-.68-3.276t.68-3.291q.688-1.433 1.915-2.231 1.234-.807 2.88-.807a5.8 5.8 0 0 1 1.875.316 4.6 4.6 0 0 1 1.685 1.029q.76.705 1.21 1.867.452 1.163.452 2.864v.791H27.65V23.44h7.469q0-1.028-.412-1.835a3.1 3.1 0 0 0-1.155-1.274q-.744-.467-1.756-.467-1.116 0-1.93.554a3.64 3.64 0 0 0-1.243 1.424 4.2 4.2 0 0 0-.435 1.883v1.076q0 1.377.474 2.334.483.95 1.338 1.448.854.49 1.986.49.735 0 1.329-.205.6-.213 1.036-.633.435-.427.673-1.06l1.804.506a4 4 0 0 1-.958 1.614 4.7 4.7 0 0 1-1.661 1.076q-.99.38-2.223.38m9.443.032q-1.155 0-2.096-.435a3.6 3.6 0 0 1-1.496-1.274q-.554-.84-.554-2.026 0-1.044.412-1.693.41-.656 1.1-1.029a5.8 5.8 0 0 1 1.519-.553A19 19 0 0 1 42 23.472a76 76 0 0 1 1.796-.214q.696-.079 1.013-.26.324-.183.324-.634v-.063q0-1.17-.64-1.82-.635-.648-1.923-.649-1.337 0-2.097.586-.759.585-1.068 1.25l-1.773-.633q.476-1.107 1.266-1.725a4.7 4.7 0 0 1 1.741-.87 7.2 7.2 0 0 1 1.867-.253q.585 0 1.345.142.768.135 1.48.562.72.427 1.195 1.29.474.862.474 2.31v8.007h-1.867v-1.646h-.095q-.189.396-.633.847-.443.45-1.179.767-.735.317-1.796.317m.285-1.678q1.108 0 1.867-.435.768-.435 1.155-1.123.396-.69.396-1.448v-1.71q-.118.144-.522.262-.396.111-.918.198-.514.078-1.005.142-.483.056-.783.095a7 7 0 0 0-1.36.309 2.35 2.35 0 0 0-1.014.625q-.38.412-.38 1.123 0 .974.72 1.472.729.49 1.844.49m8.556-14.811v16.204h-1.868V14.294zm.781 1.74v-1.74h12.153v1.74H58.11v14.464h-1.962V16.035zM63 30.499h-2.057l5.95-16.204h2.025l5.95 16.204h-2.057l-4.842-13.64h-.127zm.76-6.33h8.292v1.74H63.76zm21.943-4.81a5.7 5.7 0 0 0-.689-1.432 4.4 4.4 0 0 0-1.005-1.092q-.578-.45-1.313-.689a5.2 5.2 0 0 0-1.614-.237q-1.44 0-2.619.744t-1.875 2.191q-.697 1.449-.697 3.553t.705 3.552q.705 1.449 1.906 2.192 1.203.744 2.707.744 1.392 0 2.452-.593a4.2 4.2 0 0 0 1.662-1.694q.6-1.1.601-2.587l.601.127h-4.874v-1.741h6.172v1.74q0 2.003-.854 3.482a5.9 5.9 0 0 1-2.343 2.295q-1.486.806-3.418.806-2.151 0-3.781-1.012-1.623-1.013-2.532-2.88-.903-1.867-.902-4.431 0-1.923.514-3.458.523-1.543 1.471-2.626a6.4 6.4 0 0 1 2.248-1.662q1.297-.578 2.856-.578 1.28 0 2.39.388a6.4 6.4 0 0 1 1.985 1.084 6.2 6.2 0 0 1 1.464 1.67q.586.965.807 2.144z"/></g><defs><linearGradient id="b" x1="46.373" x2="49.548" y1="7.517" y2="16.018" gradientUnits="userSpaceOnUse"><stop stop-color="#007bff"/><stop offset="1" stop-color="#51c1ff"/></linearGradient><linearGradient id="c" x1="53.232" x2="53.232" y1="6.678" y2="12.92" gradientUnits="userSpaceOnUse"><stop stop-color="#007bff"/><stop offset="1" stop-color="#51c1ff"/></linearGradient><clipPath id="a" transform="translate(8.912 8.912)"><rect width="100.389" height="39.954" rx="19.977"/></clipPath></defs></svg>
